!!!OTL: Yuqi kangqing shieryÅe
!!!ARE: Asia, China,ˇShandong Qixia
!! III, 344
!!!SCT: C1766
!!!YEM: Copyright 1995, estate of Helmut Schaffrath.
**kern
*ICvox
*Ivox
*M2/4
*k[]
*C:
{8g
8e
8g
8a
=1
4cc
4cc
=2
8.cc
16dd
8ee
8dd
=3
8cc
8a
4g}
=4
{4ee
8ee
8dd
=5
8cc
8dd
4cc
=6
8.a
16g
8a
8cc
=7
2g}
=8
{4e
8e
8d
=9
4e
4g
=10
4cc
8a
8g
=11
4e
4d}
=12
{4.ee
8dd
=13
8cc
8dd
4cc
=14
8dd
8g
4a
=15
2g}
==
!!!AGN: Xiaodiao, Xiaoyangge diao
!!!AMT: simple duple
!!!AIN: vox
!!!EED: Helmut Schaffrath
!!!EEV: 1.0
*-
